X: 471
T: Mai cai
%%abc-version 2.0
%%abcx-abcm2ps-target-version 5.9.1 (29 Sep 2008)
%%abc-creator hum2abc beta
%%abcx-conversion-date 2013/10/02 07:52:30
%%abc-edited-by Helmut Schaffrath
%%humdrum-veritas 2065808121
%%humdrum-veritas-data 1103728540
%%continueall 1
%%barnumbers 0
L: 1/8
M: 5/4
K: G
e e e e f e/ B/d4 [I:setbarnb 1]| 
e/ g/ e/ d/ B B d BA4 | 
[M:4/4]A> G A B d B d d | 
F ED2d2B d | 
A G F ED4 | 
A/ G/ A/ G/ A/ G/ A/ B/ d/ B/ d/ B/d2 | 
F> ED2d2B d | 
AG2ED4 |]  



